icons/1_Primary/Fakturoid.svg

<svg width="1024" height="1024" fill="none" xmlns="http://www.w3.org/2000/svg"><g clip-path="url(#a)"><path d="M512 1024c282.77 0 512-229.23 512-512S794.77 0 512 0 0 229.23 0 512s229.23 512 512 512Z" fill="#56595B"/><path d="M512.01 258c-144.44 0-261.56 92.91-261.56 207.53v92.93C250.45 673.08 367.57 766 512.01 766s261.53-92.93 261.53-207.54v-92.93C773.54 350.91 656.46 258 512.01 258Zm-84.9 307.46h-25.9v100.55h-24.1c-19.21 0-36.18-14.7-36.18-35.65V471.54c0-49.02 22.78-110.41 91.2-125.61 69.26-15.39 88.63 18.48 88.63 18.48s-43.34-.59-77.29 25.9c-19.33 15.08-41.59 48.33-42.27 86.14v46.71c42.76 8.19 76.98-6.02 87.08-10.51l1.73-.22s-3.07 53.03-62.91 53.03h.01Zm267.48 18.56c0 50.8-37.5 85.99-91.08 85.99h-12.06c-57.15 0-96.44-32.08-96.44-76.19s31.25-75.3 119.67-75.3h20.98v-3.13c0-33.86-16.07-57.93-51.8-57.93-43.31 0-67.41 16.49-76.35 27.63h-2.23v-19.16c0-26.74 24.12-58.81 87.51-58.81 53.58 0 101.8 38.76 101.8 121.63v55.27Zm-79.92-22.72h21.43v23.16c0 24.51-12.5 36.99-38.4 36.99s-41.51-11.14-41.51-29.85 12.94-30.3 58.49-30.3h-.01Z" fill="#fff"/></g><defs><clipPath id="a"><path fill="#fff" d="M0 0h1024v1024H0z"/></clipPath></defs></svg>

<svg width="1024" height="1024" viewBox="0 0 1024 1024" fill="none" xmlns="http://www.w3.org/2000/svg">
<g clip-path="url(#clip0_2_2148)">
<path d="M512 1024C794.77 1024 1024 794.77 1024 512C1024 229.23 794.77 0 512 0C229.23 0 0 229.23 0 512C0 794.77 229.23 1024 512 1024Z" fill="#56595B"/>
<path d="M512.01 258C367.57 258 250.45 350.91 250.45 465.53V558.46C250.45 673.08 367.57 766 512.01 766C656.45 766 773.54 673.07 773.54 558.46V465.53C773.54 350.91 656.46 258 512.01 258ZM427.11 565.46H401.21V666.01H377.11C357.9 666.01 340.93 651.31 340.93 630.36V471.54C340.93 422.52 363.71 361.13 432.13 345.93C501.39 330.54 520.76 364.41 520.76 364.41C520.76 364.41 477.42 363.82 443.47 390.31C424.14 405.39 401.88 438.64 401.2 476.45V523.16C443.96 531.35 478.18 517.14 488.28 512.65L490.01 512.43C490.01 512.43 486.94 565.46 427.1 565.46H427.11ZM694.59 584.02C694.59 634.82 657.09 670.01 603.51 670.01H591.45C534.3 670.01 495.01 637.93 495.01 593.82C495.01 549.71 526.26 518.52 614.68 518.52H635.66V515.39C635.66 481.53 619.59 457.46 583.86 457.46C540.55 457.46 516.45 473.95 507.51 485.09H505.28V465.93C505.28 439.19 529.4 407.12 592.79 407.12C646.37 407.12 694.59 445.88 694.59 528.75V584V584.02ZM614.67 561.3H636.1V584.46C636.1 608.97 623.6 621.45 597.7 621.45C571.8 621.45 556.19 610.31 556.19 591.6C556.19 572.89 569.13 561.3 614.68 561.3H614.67Z" fill="white"/>
</g>
<defs>
<clipPath id="clip0_2_2148">
<rect width="1024" height="1024" fill="white"/>
</clipPath>
</defs>
</svg>
